data/styles/clear/style-night/symbols/sweets-m.svg

<svg height="24" viewBox="0 0 24 24" width="24"><g fill="none" fill-rule="evenodd"><circle cx="12" cy="12" fill="#fff" opacity=".4" r="12"/><circle cx="12" cy="12" fill="#4e3552" r="11"/><path d="m18.7500659 8.97437284-3.03092.89512755c.3795988.92741081.1927345 2.03189061-.560593 2.78614561l-2.5006557 2.502444c-.7543057.7542551-1.8608165.9401285-2.79024645.5595771l-.89323108 3.0316942c-.11348829.3873995-.35905346.3179415-.54689614-.1545684l-.85996728-2.1629804-2.16312587-.8599094c-.47058505-.1868518-.54200441-.4314221-.15360053-.5468593l3.03091993-.8941493c-.3805771-.9274108-.19469111-2.0328689.55961465-2.7881022l2.50163407-2.50146574c.7543057-.75425502 1.8608165-.9401285 2.7902465-.55859872l.8922527-3.0316943c.1144666-.38739946.3580751-.31891976.5468961.15359019l.8599673 2.16298035 2.1631259.85990941c.4715634.18880833.541026.4333787.1545789.54685935z" fill="#fff" opacity=".6"/></g></svg>

<svg width="24" height="24" viewBox="0 0 24 24">
  <g fill="none" fill-rule="evenodd">
    <circle cx="12" cy="12" r="12" fill="#FFF" opacity=".4"/>
    <circle cx="12" cy="12" r="11" fill="#4E3551"/>
    <path fill="#FFF" d="M18.7500659,8.97437284 L15.7191459,9.86950039 C16.0987447,10.7969112 15.9118804,11.901391 15.1585529,12.655646 L12.6578972,15.15809 C11.9035915,15.9123451 10.7970807,16.0982185 9.86765075,15.7176671 L8.97441967,18.7493613 C8.86093138,19.1367608 8.61536621,19.0673028 8.42752353,18.5947929 L7.56755625,16.4318125 L5.40443038,15.5719031 C4.93384533,15.3850513 4.86242597,15.140481 5.25082985,15.0250438 L8.28174978,14.1308945 C7.90117268,13.2034837 8.08705867,12.0980256 8.84136443,11.3427923 L11.3429985,8.84132656 C12.0973042,8.08707154 13.203815,7.90119806 14.133245,8.28272784 L15.0254977,5.25103354 C15.1399643,4.86363408 15.3835728,4.93211378 15.5723938,5.40462373 L16.4323611,7.56760408 L18.595487,8.42751349 C19.0670504,8.61632182 19.136513,8.86089219 18.7500659,8.97437284 L18.7500659,8.97437284 Z" opacity=".6"/>
  </g>
</svg>
